actions/22/chronometer.svg

<svg xmlns="http://www.w3.org/2000/svg" viewBox="0 0 22 22">
  <defs id="defs3051">
    <style type="text/css" id="current-color-scheme">
      .ColorScheme-Text {
        color:#808080;
      }
      </style>
  </defs>
 <path 
     style="fill:currentColor;fill-opacity:1;stroke:none" 
	 d="m11 3c-1.107998 0-2 .892002-2 2 0 .097284.011719.192036.025391.285156-2.909648.848995-5.02539 3.523737-5.02539 6.714844 0 3.878 3.122 7 7 7 3.878 0 7-3.122 7-7 0-1.586301-.52733-3.04152-1.410156-4.212891.243033-.182096.410156-.45871.410156-.787109 0-.554-.446-1-1-1-.328399 0-.605013.167123-.787109.410156-.664149-.500549-1.418203-.885712-2.238282-1.125.013672-.09312.025391-.187873.025391-.285156 0-1.107998-.892002-2-2-2m0 1c.554004 0 1 .445996 1 1 0 .027034-.01354.049691-.015625.076172-.322538-.045169-.648999-.076172-.984375-.076172-.335376 0-.661837.031003-.984375.076172-.002085-.026481-.015625-.049138-.015625-.076172 0-.554004.445996-1 1-1m0 2c.25958 0 .513703.01932.763672.052734.034758.004386.068949.010651.103516.015625.242093.036669.480551.085481.71289.148438 2.550944.691228 4.419922 3.00762 4.419922 5.783203 0 3.324-2.676 6-6 6-3.324 0-6-2.676-6-6 0-2.775584 1.868978-5.091975 4.419922-5.783203.23234-.062957.470797-.111768.71289-.148438.034567-.004974.068758-.011239.103516-.015625.249969-.033414.504092-.052734.763672-.052734m0 1v4c.554 0 1 .446 1 1h4c0-2.77-2.23-5-5-5"
	 class="ColorScheme-Text"
     />
</svg>

<svg xmlns="http://www.w3.org/2000/svg" version="1.1" viewBox="0 0 22 22">
 <defs>
  <style id="current-color-scheme" type="text/css">
   .ColorScheme-Text { color:#808080; }
  </style>
 </defs>
 <path class="ColorScheme-Text" d="M 11,3 C 9.892,3 9,3.892 9,5 9,5.0973 9.0117,5.192 9.0254,5.2852 6.1157,6.1342 4,8.8089 4,12 4,15.878 7.122,19 11,19 14.878,19 18,15.878 18,12 18,10.414 17.473,8.9585 16.59,7.7871 16.833,7.605 17,7.3284 17,7 17,6.446 16.554,6 16,6 15.672,6 15.395,6.1671 15.213,6.4102 14.549,5.9096 13.795,5.5244 12.975,5.2852 12.988,5.192 13,5.0973 13,5 13,3.892 12.108,3 11,3 M 11,4 C 11.554,4 12,4.446 12,5 12,5.027 11.986,5.0497 11.984,5.0762 11.662,5.031 11.335,5 11,5 10.665,5 10.338,5.031 10.016,5.0762 10.014,5.0497 10,5.027 10,5 10,4.446 10.446,4 11,4 M 11,6 C 11.26,6 11.514,6.0193 11.764,6.0527 11.798,6.0571 11.833,6.0634 11.867,6.0684 12.109,6.105 12.348,6.1538 12.58,6.2168 15.131,6.908 17,9.2244 17,12 17,15.324 14.324,18 11,18 7.676,18 5,15.324 5,12 5,9.2244 6.869,6.908 9.4199,6.2168 9.6523,6.1538 9.8907,6.105 10.133,6.0684 10.167,6.0634 10.202,6.0571 10.236,6.0527 10.486,6.0193 10.74,6 11,6 M 11,7 V 11 C 11.554,11 12,11.446 12,12 H 16 C 16,9.23 13.77,7 11,7" style="color:#808080;fill:currentColor"/>
</svg>
